X:162
T:Hornpipe. JGi.162
T:Favourite Hornpipe,aka. JGi.162
M:C|
L:1/8
Q:1/2=90
S:Joshua Gibbons MS,1823,Tealby,Lincs.
N:In Clare MS as “Favourite[?] Hornpipe”
R:.hornpipe
O:Tealby,Lincolnshire
Z:VMP/R.Greig, 2009
K:C
ef|gege c2ec|dBdBG2FE|FGAB cdef|dBGBd2ef|
gege c2ec|dBdBG2FE|Ffaf ecdB|c2c2c2:|
|:cd|ecdBA2fg|a2d2d2Bc|dBcAG2 ef|g2c2c2G2|
ABcA GEGE|ABcA GEGE|Afaf ecdB|c2c2c2:|

